dist/img/svg/vk.svg

<svg width="24" height="14" viewBox="0 0 24 14" fill="none" xmlns="http://www.w3.org/2000/svg">
<path fill-rule="evenodd" clip-rule="evenodd" d="M20.6554 8.90184C21.4515 9.70303 22.2918 10.4568 23.0058 11.3388C23.3212 11.7308 23.6199 12.1352 23.8483 12.5901C24.172 13.2367 23.8788 13.9482 23.3163 13.9868L19.82 13.9852C18.9182 14.0623 18.1988 13.6881 17.5939 13.0526C17.1098 12.5443 16.6615 12.0034 16.1961 11.478C16.0052 11.2632 15.8055 11.0612 15.5669 10.9015C15.0896 10.5821 14.6753 10.6799 14.4025 11.193C14.1247 11.7149 14.0617 12.2928 14.0344 12.8745C13.997 13.7232 13.7481 13.9463 12.9211 13.9851C11.1537 14.071 9.47629 13.7954 7.91806 12.8764C6.54426 12.0661 5.47894 10.9223 4.5517 9.62744C2.74634 7.10599 1.36379 4.33534 0.121208 1.48705C-0.158487 0.845332 0.0460603 0.500859 0.732957 0.488667C1.87358 0.465827 3.01405 0.467453 4.15601 0.487042C4.61959 0.494032 4.92649 0.768114 5.10549 1.21955C5.7226 2.78366 6.47771 4.27177 7.42553 5.65113C7.67794 6.01836 7.93532 6.38559 8.30184 6.64407C8.7073 6.93026 9.01602 6.83541 9.20677 6.36982C9.32781 6.07461 9.3808 5.75663 9.40808 5.44045C9.49845 4.35265 9.51035 3.26672 9.35186 2.18275C9.25455 1.50624 8.88488 1.06829 8.23 0.94027C7.89582 0.875 7.94558 0.746819 8.10738 0.550198C8.38842 0.21109 8.65274 0 9.17964 0H13.1311C13.7532 0.126556 13.8913 0.414619 13.9765 1.05984L13.9799 5.58423C13.9731 5.83401 14.1009 6.57522 14.5374 6.74055C14.8867 6.85825 15.117 6.57018 15.3265 6.34186C16.2726 5.30682 16.9479 4.08361 17.5511 2.81699C17.8188 2.26004 18.049 1.68164 18.2721 1.10373C18.4373 0.674884 18.6967 0.463876 19.1653 0.473223L22.9684 0.476719C23.0811 0.476719 23.1952 0.478426 23.3044 0.49769C23.9453 0.610265 24.1209 0.894427 23.923 1.53948C23.6111 2.55152 23.0043 3.3949 22.411 4.24219C21.7768 5.14677 21.0985 6.02039 20.4696 6.93034C19.8917 7.76129 19.9376 8.18014 20.6554 8.90184Z" fill="white"/>
</svg>

<svg width="24" height="14" viewBox="0 0 24 14" fill="none" xmlns="http://www.w3.org/2000/svg"><path fill-rule="evenodd" clip-rule="evenodd" d="M20.655 8.902c.796.801 1.637 1.555 2.35 2.437.316.392.615.796.843 1.251.324.647.03 1.358-.532 1.397l-3.496-.002c-.902.077-1.621-.297-2.226-.932-.484-.509-.933-1.05-1.398-1.575a3.346 3.346 0 00-.63-.576c-.476-.32-.89-.222-1.164.291-.277.522-.34 1.1-.368 1.681-.037.85-.286 1.072-1.113 1.111-1.767.086-3.445-.19-5.003-1.109-1.374-.81-2.44-1.954-3.366-3.249-1.806-2.521-3.188-5.292-4.43-8.14C-.159.845.045.501.732.489A92.06 92.06 0 014.156.487c.464.007.77.281.95.733.617 1.564 1.372 3.052 2.32 4.431.252.367.51.735.876.993.405.286.714.191.905-.274.12-.295.174-.613.201-.93.09-1.087.102-2.173-.056-3.257C9.255 1.506 8.885 1.068 8.23.94 7.896.875 7.946.747 8.107.55 8.388.211 8.653 0 9.18 0h3.951c.622.127.76.415.845 1.06l.004 4.524c-.007.25.12.991.557 1.157.35.117.58-.17.79-.4.946-1.034 1.62-2.257 2.224-3.524a23.4 23.4 0 00.721-1.713c.165-.43.425-.64.893-.63l3.803.003c.113 0 .227.001.336.02.641.113.817.397.619 1.042-.312 1.013-.919 1.856-1.512 2.703-.634.905-1.313 1.778-1.941 2.688-.578.831-.532 1.25.185 1.972z" fill="#fff"/></svg>
